X: 20471
T: WATERLOO DANCE
C:
%R: reel, polka
B: Elias Howe "The Musician's Companion" 1843 p.47 #1
S: http://imslp.org/wiki/The_Musician's_Companion_(Howe,_Elias)
Z: 2015 John Chambers <jc:trillian.mit.edu>
M: 2/4
L: 1/16
K: D
% - - - - - - - - - - - - - - - - - - - - - - - - -
AG |\
F2dB A2fe | d2d2d2 (cd) | e2e2 (dc).B.c | (de).f.d A2(AG) |\
F2dB A2fe | d2d2d2 (cd) | e2e2 (dcBc) | d2d2d2 :|
|: de |\
e2ec a2af | e2ec A2A2 | BABc dBed | d4 {ed}c2 cd |\
e2ec a2af | e2ec A2A2 | ^GABc dBAG | A4 z2 :|
|: fg |\
a6 f2 | b2a2g2f2 | e2e2 edef | d2e2f2g2 |\
a6 f2 | b2a2g2f2 | e2e2 edef | d2f2d2 :|
% - - - - - - - - - - - - - - - - - - - - - - - - -

%%sep 1 1 500

